source/img/logotypes/logo-bitcoin.svg

<svg width="80" height="80" viewBox="0 0 80 80" fill="none" xmlns="http://www.w3.org/2000/svg">
<circle cx="40" cy="40" r="40" fill="#C4C4C4"/>
<g clip-path="url(#clip0)">
<path d="M78.8035 49.6732C73.4591 71.1132 51.7369 84.1463 30.3276 78.8016C8.88695 73.4573 -4.14617 51.736 1.19852 30.327C6.54289 8.88696 28.2335 -4.14617 49.6741 1.19852C71.0835 6.51164 84.1482 28.2329 78.8035 49.6732Z" fill="url(#paint0_linear)"/>
<path d="M59.0449 35.0159C59.8261 29.7034 55.7949 26.8284 50.2324 24.9222L52.0449 17.7034L47.6699 16.6097L45.9199 23.6409C44.7636 23.3597 43.5761 23.0784 42.3886 22.8284L44.1386 15.7659L39.7636 14.6722L37.9824 21.8597C37.0136 21.6409 36.0761 21.4222 35.1699 21.2034V21.1722L29.1074 19.6722L27.9511 24.3597C27.9511 24.3597 31.2011 25.1097 31.1386 25.1409C32.9199 25.5784 33.2324 26.7659 33.1699 27.7034L31.1074 35.9222C31.2324 35.9534 31.3886 35.9847 31.5761 36.0784C31.4199 36.0472 31.2636 36.0159 31.1074 35.9534L28.2324 47.4534C28.0136 47.9847 27.4511 48.7972 26.2324 48.4847C26.2636 48.5472 23.0449 47.7034 23.0449 47.7034L20.8574 52.7347L26.5761 54.1722C27.6386 54.4534 28.6699 54.7034 29.7011 54.9847L27.8886 62.2659L32.2636 63.3597L34.0761 56.1409C35.2636 56.4534 36.4511 56.7659 37.5761 57.0472L35.7949 64.2347L40.1699 65.3284L41.9824 58.0472C49.4824 59.4534 55.1074 58.8909 57.4511 52.1097C59.3574 46.6722 57.3574 43.5159 53.4199 41.4534C56.3261 40.7972 58.4824 38.8909 59.0449 35.0159ZM49.0136 49.0784C47.6699 54.5159 38.4824 51.5784 35.5136 50.8284L37.9199 41.1722C40.8886 41.9222 50.4511 43.3909 49.0136 49.0784ZM50.3886 34.9222C49.1386 39.8909 41.5136 37.3597 39.0449 36.7347L41.2324 27.9847C43.7011 28.6097 51.6699 29.7659 50.3886 34.9222Z" fill="white"/>
</g>
<defs>
<linearGradient id="paint0_linear" x1="39.9785" y1="-0.0190779" x2="39.9785" y2="79.992" gradientUnits="userSpaceOnUse">
<stop stop-color="#F9AA4B"/>
<stop offset="1" stop-color="#F7931A"/>
</linearGradient>
<clipPath id="clip0">
<rect width="80" height="80" fill="white"/>
</clipPath>
</defs>
</svg>

<svg width="80" height="80" fill="none" xmlns="http://www.w3.org/2000/svg"><circle cx="40" cy="40" r="40" fill="#C4C4C4"/><g clip-path="url(#clip0)"><path d="M78.803 49.673c-5.344 21.44-27.066 34.473-48.475 29.129C8.887 73.457-4.146 51.736 1.198 30.327 6.544 8.887 28.234-4.146 49.675 1.199c21.41 5.313 34.474 27.034 29.13 48.474z" fill="url(#paint0_linear)"/><path d="M59.045 35.016c.781-5.313-3.25-8.188-8.813-10.094l1.813-7.219-4.375-1.093-1.75 7.03a117.025 117.025 0 00-3.531-.812l1.75-7.062-4.375-1.094-1.782 7.188a211.62 211.62 0 01-2.812-.657v-.03l-6.063-1.5-1.156 4.687s3.25.75 3.188.78c1.78.438 2.093 1.626 2.03 2.563l-2.062 8.22c.125.03.282.062.47.155a2.599 2.599 0 01-.47-.125l-2.875 11.5c-.218.532-.78 1.344-2 1.032.032.062-3.187-.782-3.187-.782l-2.188 5.032 5.72 1.437c1.062.281 2.093.531 3.124.813l-1.812 7.28 4.375 1.095 1.812-7.22c1.188.313 2.375.626 3.5.907l-1.781 7.188 4.375 1.093 1.812-7.28c7.5 1.405 13.125.843 15.47-5.938 1.905-5.438-.095-8.594-4.032-10.657 2.906-.656 5.062-2.562 5.625-6.437zM49.014 49.078c-1.344 5.438-10.532 2.5-13.5 1.75l2.406-9.656c2.969.75 12.531 2.219 11.094 7.906zm1.375-14.156c-1.25 4.969-8.875 2.438-11.344 1.813l2.187-8.75c2.47.625 10.438 1.78 9.157 6.937z" fill="#fff"/></g><defs><linearGradient id="paint0_linear" x1="39.978" y1="-.019" x2="39.978" y2="79.992" gradientUnits="userSpaceOnUse"><stop stop-color="#F9AA4B"/><stop offset="1" stop-color="#F7931A"/></linearGradient><clipPath id="clip0"><path fill="#fff" d="M0 0h80v80H0z"/></clipPath></defs></svg>
